X:1
T:Di gelo accesa
T:Giovanni Matteo Asola
T:Source : Madrigali a due voci---Venetia---G.Vincenti---1587. Editor : André Vierendeels (15/11/17). Notes : Original clef : C3 ( Fuga di mezo tempo, in unisono) Editorial accidentals above the staff Sesta stanza
T:Di gelo accesa
T:©
T:©
T:©
C:Giovanni Matteo Asola
Z:©
%%score [ 1 2 ]
L:1/8
Q:1/4=126
M:2/2
K:F
V:1 treble-8 nm="Tenor 1" snm="T 1"
V:2 treble-8 nm="Tenor 2" snm="T 2"
V:1
 G4 B2 c2 | d4 G2 g2- | g2 f2 g2 _e2 | d4 G4 | z2 d2 d2 B2 | c2 d2 G2 g2 | e2 f2 gfed | c2 d2 G4 | %8
w: Di ge- lo'ac-|ce- sa del|_ mio'ar- den- te|lu- me,|con di- lett'|im- mor- tal tra|que- sti pog- * * *|* * gi,|
 z2 d2 d2 d2 | f3 g a2 a2 | d3 c/B/ A2 A2 | Bc d4 c2 | d4 z2 a2 | a2 a2 f2 d2 | fedc d2 B2 | %15
w: in- co- ro-|na- ta di fron-|do- * * * si|ra- * * *|mi, in-|vi- to dol- ce-|men- * * * * t'o-|
 A2 f3 e d2 | cBAG F2 G2 | A4 z2 d2 | d2 c2 d2 B2 | A2 A2 BG g2- | g2 f2 g4 | z2 d2 B2 c2 | %22
w: gn'un per _ _|tem- * * * * *|po, la-|sciar in mond' e|me se- guir al cie-|* * lo,|a mie- ter|
 d2 B2 G2 A2 | B2 d4 c2 | d4 z2 e2 | f2 d4 c2 | d2 B2 A4 | G2 g4 f2 | g4 z2 d2 | %29
w: frut- ti non piu|fio- ri'o fon-|di, non|piu el- let-|te fron- *||di, al-|
"^-natural" e2 c2 d2 B2 | A4 G2 d2 | c2 A2 B4 | A2 a2 f2 g2 | agfe d2 cB | A2 a3 f g2 | a2 d4 e2 | %36
w: tre piu e- let-|te fron- di'et|al- tro lu-|me, sa- lend' al|cie- * * * * * *||lo fuor di|
 f3 e d2 c2 | B6 A2 | G4 d4 | g6 f2 | e2 e2 d4 | z2 c2 G2 B2 | A4 Bc d2- | d2 c2 dcBA | %44
w: que- * * sti|pog- *|gi, e|tem- po|di fru- ir|non sec- chi|ra- * * *||
 G2 g3 f/e/ f2 | g2 c2 d2 d2 | e2 g4 f2 | g2 G2 d4 | G8 |] %49
w: |mi, non sec- chi|ra- * *|mi, ra- *|mi.|
V:2
 z8 | G4 B2 c2 | d4 G2 g2- | g2 f2 g2 _e2 | d4 G4 | z2 d2 d2 B2 | c2 d2 G2 g2 | e2 f2 gfed | %8
w: |Di ge- lo'ac-|ce- sa del|_ mio'ar- den- te|lu- me,|con di- lett'|im- mor- tal tra|que- sti pog- * * *|
 c2 d2 G4 | z2 d2 d2 d2 | f3 g a2 a2 | d3 c/B/ A2 A2 | Bc d4 c2 | d4 z2 a2 | a2 a2 f2 d2 | %15
w: * * gi,|in co- ro-|na- ta di fron-|do- * * * si|ra- * * *|mi, in-|vi- to dol- ce-|
 fedc d2 B2 | A2 f3 e d2 | cBAG F2 G2 | A4 z2 d2 | d2 c2 d2 B2 | A2 A2 BG g2- | g2 f2 g4 | %22
w: men- * * * * t'o-|gn'un per _ _|tem- * * * * *|po, la-|sciar in mond' e|me se- guir al cie-|* * lo,|
 z2 d2 B2 c2 | d2 B2 G2 A2 | B2 d4 c2 | d4 z2 e2 | f2 d4 c2 | d2 B2 A4 | G2 g4 f2 | g4 z2 d2 | %30
w: a mie- ter|frut- ti non piu|fio- ri'o fron-|di, non|piu e- let-|te fron- *||di, al-|
 e2 c2 d2 B2 | A4 G2 d2 | c2 A2 B4 | A2 a2 f2 g2 | agfe d2 cB | A2 a3 f g2 | a2 d4 e2 | %37
w: tre piu e- let-|te fron- di'et|al- tro lu-|me, sa- lend' al|cie- * * * * * *||lo fuor di|
 f3 e d2 c2 | B6 A2 | G4 d4 | g6 f2 | e2 e2 d4 | z2 c2 G2 B2 | A4 Bc d2- | d2 c2 dcBA | %45
w: que- * * sti|pog- *|gi, e|tem- po|di fru- ir|non sec- chi|ra- * * *||
 G2 g3 f/e/ f2 | g2 c2 d2 d2 |"^#" e2 g4 f2 | g8 |] %49
w: |mi, sec- chi ra-||mi.|

